packages/gestalt/src/icons/share.svg

<svg width="24" height="24" xmlns="http://www.w3.org/2000/svg"><path fill="#aeaeae" d="M21 14c1.1 0 2 .9 2 2v6c0 1.1-.9 2-2 2H3c-1.1 0-2-.9-2-2v-6c0-1.1.9-2 2-2s2 .9 2 2v4h14v-4c0-1.1.9-2 2-2zM8.82 8.84c-.78.78-2.05.79-2.83 0-.78-.78-.79-2.04-.01-2.82L11.99 0l6.02 6.01c.78.78.79 2.05.01 2.83-.78.78-2.05.79-2.83 0l-1.2-1.19v6.18a2 2 0 1 1-4 0V7.66L8.82 8.84z"/></svg>

<svg width="24" height="24" viewBox="0 0 24 24" xmlns="http://www.w3.org/2000/svg"><path fill="#aeaeae" d="M21.00,14.00 C22.10,14.00 23.00,14.90 23.00,16.00 L23.00,22.00 C23.00,23.10 22.10,24.00 21.00,24.00 L3.00,24.00 C1.90,24.00 1.00,23.10 1.00,22.00 L1.00,16.00 C1.00,14.90 1.90,14.00 3.00,14.00 C4.10,14.00 5.00,14.90 5.00,16.00 L5.00,20.00 L19.00,20.00 L19.00,16.00 C19.00,14.90 19.90,14.00 21.00,14.00 Z M8.82,8.84 C8.04,9.62 6.77,9.63 5.99,8.84 C5.21,8.06 5.20,6.80 5.98,6.02 L11.99,0.00 L18.01,6.01 C18.79,6.79 18.80,8.06 18.02,8.84 C17.24,9.62 15.97,9.63 15.19,8.84 L13.99,7.65 L13.99,13.83 C13.99,14.93 13.10,15.83 11.99,15.83 C10.89,15.83 9.99,14.93 9.99,13.83 L9.99,7.66 L8.82,8.84 Z"/></svg>
